X:155
T:RVW2/2/155 The Jolly Thresherman
C:Mr. and Mrs. Verrall, Horsham, Sussex, 8 October 1904
L:1/4
Q:1/4=120
M:4/4
I:linebreak $
K:C
"^(Editorial suggestion " D | A A G E | C2 D E | G2 F E |$ D3 D | G G A B | c A A B/c/ | d2 c B |$ 
"^(a)" A3 D | G G A B | c2 A B/c/ | d2 c d |$ A3 G | A A G D | C2 D E/"^(b)"!courtesy!^F/ | 
G2 F E | D3 ||$ D | A A G E | C2 D E | G2 F E |$ D3 D | G G A B | c A A B/c/ | d2 c B |$ 
"^(a) var. [Continues for 5 bars.]" A4 | D2 G A | B2 A B/c/ | d2 c d |$ (A G A G) | A A G D | 
C2 D E/"^(b) var."F/ | G2 F E | D3 |] 



